docs/img/dist/page-sport.svg

<svg width="334" height="205" viewBox="0 0 334 205" fill="none" xmlns="http://www.w3.org/2000/svg">
<path d="M103.656 121.101V116.101H98.6563V121.101H103.656ZM232.506 121.101H237.506V116.101H232.506V121.101ZM274.522 121.101V116.101H269.522V121.101H274.522ZM276.703 121.101H281.703V116.101H276.703V121.101ZM305.648 121.101V116.101H300.648V121.101H305.648ZM328.989 107.379H323.989V107.485L323.993 107.591L328.989 107.379ZM305.648 89.0824H300.648V94.0824H305.648V89.0824ZM276.703 89.0824V94.0824H281.703V89.0824H276.703ZM274.522 89.0824H269.522V94.0824H274.522V89.0824ZM232.506 89.0824V94.0824H237.506V89.0824H232.506ZM220.993 89.0824H215.993V94.0824H220.993V89.0824ZM220.993 88.7775H225.993V83.7775H220.993V88.7775ZM117.666 88.7775V83.7775H112.666V88.7775H117.666ZM117.666 89.0824V94.0824H122.666V89.0824H117.666ZM103.656 89.0824H98.6563V94.0824H103.656V89.0824ZM61.6404 89.0824V94.0824H66.6404V89.0824H61.6404ZM59.4624 89.0824H54.4624V94.0824H59.4624V89.0824ZM30.5182 89.0824V94.0824H35.5182V89.0824H30.5182ZM30.5182 121.101H35.5182V116.101H30.5182V121.101ZM59.4624 121.101V116.101H54.4624V121.101H59.4624ZM61.6404 121.101H66.6404V116.101H61.6404V121.101ZM89.651 194.166H75.6457V204.166H89.651V194.166ZM98.6563 185.444C98.6563 190.21 94.767 194.166 89.651 194.166V204.166C100.096 204.166 108.656 195.925 108.656 185.444H98.6563ZM98.6563 121.101V185.444H108.656V121.101H98.6563ZM232.506 116.101H103.656V126.101H232.506V116.101ZM237.506 185.444V121.101H227.506V185.444H237.506ZM246.511 194.166C241.395 194.166 237.506 190.21 237.506 185.444H227.506C227.506 195.925 236.066 204.166 246.511 204.166V194.166ZM260.516 194.166H246.511V204.166H260.516V194.166ZM269.522 185.444C269.522 190.21 265.632 194.166 260.516 194.166V204.166C270.962 204.166 279.522 195.925 279.522 185.444H269.522ZM269.522 121.101V185.444H279.522V121.101H269.522ZM276.703 116.101H274.522V126.101H276.703V116.101ZM281.703 161.963V121.101H271.703V161.963H281.703ZM286.351 166.417C283.725 166.417 281.703 164.29 281.703 161.963H271.703C271.703 170.004 278.396 176.417 286.351 176.417V166.417ZM295.999 166.417H286.351V176.417H295.999V166.417ZM300.648 161.963C300.648 164.29 298.626 166.417 295.999 166.417V176.417C303.955 176.417 310.648 170.004 310.648 161.963H300.648ZM300.648 121.101V161.963H310.648V121.101H300.648ZM315.295 116.101H305.648V126.101H315.295V116.101ZM323.993 107.591C324.177 111.914 320.387 116.101 315.295 116.101V126.101C325.764 126.101 334.423 117.481 333.984 107.166L323.993 107.591ZM323.989 102.805V107.379H333.989V102.805H323.989ZM314.984 94.0824C320.1 94.0824 323.989 98.0384 323.989 102.805H333.989C333.989 92.3241 325.429 84.0824 314.984 84.0824V94.0824ZM305.648 94.0824H314.984V84.0824H305.648V94.0824ZM300.648 47.6104V89.0824H310.648V47.6104H300.648ZM295.999 43.1573C298.626 43.1573 300.648 45.2836 300.648 47.6104H310.648C310.648 39.5693 303.955 33.1573 295.999 33.1573V43.1573ZM286.351 43.1573H295.999V33.1573H286.351V43.1573ZM281.703 47.6104C281.703 45.2836 283.725 43.1573 286.351 43.1573V33.1573C278.396 33.1573 271.703 39.5693 271.703 47.6104H281.703ZM281.703 89.0824V47.6104H271.703V89.0824H281.703ZM274.522 94.0824H276.703V84.0824H274.522V94.0824ZM269.522 19.5559V89.0824H279.522V19.5559H269.522ZM260.516 10.8335C265.632 10.8335 269.522 14.7894 269.522 19.5559H279.522C279.522 9.0752 270.962 0.833496 260.516 0.833496V10.8335ZM246.511 10.8335H260.516V0.833496H246.511V10.8335ZM237.506 19.5559C237.506 14.7894 241.395 10.8335 246.511 10.8335V0.833496C236.066 0.833496 227.506 9.07519 227.506 19.5559H237.506ZM237.506 89.0824V19.5559H227.506V89.0824H237.506ZM220.993 94.0824H232.506V84.0824H220.993V94.0824ZM225.993 89.0824V88.7775H215.993V89.0824H225.993ZM220.993 83.7775H117.666V93.7775H220.993V83.7775ZM112.666 88.7775V89.0824H122.666V88.7775H112.666ZM103.656 94.0824H117.666V84.0824H103.656V94.0824ZM98.6563 19.5559V89.0824H108.656V19.5559H98.6563ZM89.651 10.8335C94.767 10.8335 98.6563 14.7895 98.6563 19.5559H108.656C108.656 9.07519 100.096 0.833496 89.651 0.833496V10.8335ZM75.6457 10.8335H89.651V0.833496H75.6457V10.8335ZM66.6404 19.5559C66.6404 14.7895 70.5298 10.8335 75.6457 10.8335V0.833496C65.2003 0.833496 56.6404 9.07519 56.6404 19.5559H66.6404ZM66.6404 89.0824V19.5559H56.6404V89.0824H66.6404ZM59.4624 94.0824H61.6404V84.0824H59.4624V94.0824ZM54.4624 43.0363V89.0824H64.4624V43.0363H54.4624ZM49.8143 38.5832C52.4405 38.5832 54.4624 40.7095 54.4624 43.0363H64.4624C64.4624 34.9952 57.77 28.5832 49.8143 28.5832V38.5832ZM40.1663 38.5832H49.8143V28.5832H40.1663V38.5832ZM35.5182 43.0363C35.5182 40.7095 37.5401 38.5832 40.1663 38.5832V28.5832C32.2106 28.5832 25.5182 34.9952 25.5182 43.0363H35.5182ZM35.5182 89.0824V43.0363H25.5182V89.0824H35.5182ZM19.0053 94.0824H30.5182V84.0824H19.0053V94.0824ZM10 102.805C10 98.0384 13.8893 94.0824 19.0053 94.0824V84.0824C8.55983 84.0824 0 92.3241 0 102.805H10ZM10 107.379V102.805H0V107.379H10ZM19.0053 116.101C13.8893 116.101 10 112.145 10 107.379H0C0 117.86 8.55983 126.101 19.0053 126.101V116.101ZM30.5182 116.101H19.0053V126.101H30.5182V116.101ZM35.5182 157.694V121.101H25.5182V157.694H35.5182ZM40.1663 162.147C37.5401 162.147 35.5182 160.021 35.5182 157.694H25.5182C25.5182 165.735 32.2106 172.147 40.1663 172.147V162.147ZM49.8143 162.147H40.1663V172.147H49.8143V162.147ZM54.4624 157.389C54.4624 160.124 52.3364 162.147 49.8143 162.147V172.147C57.8741 172.147 64.4624 165.632 64.4624 157.389H54.4624ZM54.4624 121.101V157.389H64.4624V121.101H54.4624ZM61.6404 116.101H59.4624V126.101H61.6404V116.101ZM66.6404 185.444V121.101H56.6404V185.444H66.6404ZM75.6457 194.166C70.5298 194.166 66.6404 190.21 66.6404 185.444H56.6404C56.6404 195.925 65.2003 204.166 75.6457 204.166V194.166Z" fill="white"/>
<path d="M103.656 121.101V116.101H98.6563V121.101H103.656ZM232.506 121.101H237.506V116.101H232.506V121.101ZM274.522 121.101V116.101H269.522V121.101H274.522ZM276.703 121.101H281.703V116.101H276.703V121.101ZM305.648 121.101V116.101H300.648V121.101H305.648ZM328.989 107.379H323.989V107.485L323.993 107.591L328.989 107.379ZM305.648 89.0824H300.648V94.0824H305.648V89.0824ZM276.703 89.0824V94.0824H281.703V89.0824H276.703ZM274.522 89.0824H269.522V94.0824H274.522V89.0824ZM232.506 89.0824V94.0824H237.506V89.0824H232.506ZM220.993 89.0824H215.993V94.0824H220.993V89.0824ZM220.993 88.7775H225.993V83.7775H220.993V88.7775ZM117.666 88.7775V83.7775H112.666V88.7775H117.666ZM117.666 89.0824V94.0824H122.666V89.0824H117.666ZM103.656 89.0824H98.6563V94.0824H103.656V89.0824ZM61.6404 89.0824V94.0824H66.6404V89.0824H61.6404ZM59.4624 89.0824H54.4624V94.0824H59.4624V89.0824ZM30.5182 89.0824V94.0824H35.5182V89.0824H30.5182ZM30.5182 121.101H35.5182V116.101H30.5182V121.101ZM59.4624 121.101V116.101H54.4624V121.101H59.4624ZM61.6404 121.101H66.6404V116.101H61.6404V121.101ZM89.651 194.166H75.6457V204.166H89.651V194.166ZM98.6563 185.444C98.6563 190.21 94.767 194.166 89.651 194.166V204.166C100.096 204.166 108.656 195.925 108.656 185.444H98.6563ZM98.6563 121.101V185.444H108.656V121.101H98.6563ZM232.506 116.101H103.656V126.101H232.506V116.101ZM237.506 185.444V121.101H227.506V185.444H237.506ZM246.511 194.166C241.395 194.166 237.506 190.21 237.506 185.444H227.506C227.506 195.925 236.066 204.166 246.511 204.166V194.166ZM260.516 194.166H246.511V204.166H260.516V194.166ZM269.522 185.444C269.522 190.21 265.632 194.166 260.516 194.166V204.166C270.962 204.166 279.522 195.925 279.522 185.444H269.522ZM269.522 121.101V185.444H279.522V121.101H269.522ZM276.703 116.101H274.522V126.101H276.703V116.101ZM281.703 161.963V121.101H271.703V161.963H281.703ZM286.351 166.417C283.725 166.417 281.703 164.29 281.703 161.963H271.703C271.703 170.004 278.396 176.417 286.351 176.417V166.417ZM295.999 166.417H286.351V176.417H295.999V166.417ZM300.648 161.963C300.648 164.29 298.626 166.417 295.999 166.417V176.417C303.955 176.417 310.648 170.004 310.648 161.963H300.648ZM300.648 121.101V161.963H310.648V121.101H300.648ZM315.295 116.101H305.648V126.101H315.295V116.101ZM323.993 107.591C324.177 111.914 320.387 116.101 315.295 116.101V126.101C325.764 126.101 334.423 117.481 333.984 107.166L323.993 107.591ZM323.989 102.805V107.379H333.989V102.805H323.989ZM314.984 94.0824C320.1 94.0824 323.989 98.0384 323.989 102.805H333.989C333.989 92.3241 325.429 84.0824 314.984 84.0824V94.0824ZM305.648 94.0824H314.984V84.0824H305.648V94.0824ZM300.648 47.6104V89.0824H310.648V47.6104H300.648ZM295.999 43.1573C298.626 43.1573 300.648 45.2836 300.648 47.6104H310.648C310.648 39.5693 303.955 33.1573 295.999 33.1573V43.1573ZM286.351 43.1573H295.999V33.1573H286.351V43.1573ZM281.703 47.6104C281.703 45.2836 283.725 43.1573 286.351 43.1573V33.1573C278.396 33.1573 271.703 39.5693 271.703 47.6104H281.703ZM281.703 89.0824V47.6104H271.703V89.0824H281.703ZM274.522 94.0824H276.703V84.0824H274.522V94.0824ZM269.522 19.5559V89.0824H279.522V19.5559H269.522ZM260.516 10.8335C265.632 10.8335 269.522 14.7894 269.522 19.5559H279.522C279.522 9.0752 270.962 0.833496 260.516 0.833496V10.8335ZM246.511 10.8335H260.516V0.833496H246.511V10.8335ZM237.506 19.5559C237.506 14.7894 241.395 10.8335 246.511 10.8335V0.833496C236.066 0.833496 227.506 9.07519 227.506 19.5559H237.506ZM237.506 89.0824V19.5559H227.506V89.0824H237.506ZM220.993 94.0824H232.506V84.0824H220.993V94.0824ZM225.993 89.0824V88.7775H215.993V89.0824H225.993ZM220.993 83.7775H117.666V93.7775H220.993V83.7775ZM112.666 88.7775V89.0824H122.666V88.7775H112.666ZM103.656 94.0824H117.666V84.0824H103.656V94.0824ZM98.6563 19.5559V89.0824H108.656V19.5559H98.6563ZM89.651 10.8335C94.767 10.8335 98.6563 14.7895 98.6563 19.5559H108.656C108.656 9.07519 100.096 0.833496 89.651 0.833496V10.8335ZM75.6457 10.8335H89.651V0.833496H75.6457V10.8335ZM66.6404 19.5559C66.6404 14.7895 70.5298 10.8335 75.6457 10.8335V0.833496C65.2003 0.833496 56.6404 9.07519 56.6404 19.5559H66.6404ZM66.6404 89.0824V19.5559H56.6404V89.0824H66.6404ZM59.4624 94.0824H61.6404V84.0824H59.4624V94.0824ZM54.4624 43.0363V89.0824H64.4624V43.0363H54.4624ZM49.8143 38.5832C52.4405 38.5832 54.4624 40.7095 54.4624 43.0363H64.4624C64.4624 34.9952 57.77 28.5832 49.8143 28.5832V38.5832ZM40.1663 38.5832H49.8143V28.5832H40.1663V38.5832ZM35.5182 43.0363C35.5182 40.7095 37.5401 38.5832 40.1663 38.5832V28.5832C32.2106 28.5832 25.5182 34.9952 25.5182 43.0363H35.5182ZM35.5182 89.0824V43.0363H25.5182V89.0824H35.5182ZM19.0053 94.0824H30.5182V84.0824H19.0053V94.0824ZM10 102.805C10 98.0384 13.8893 94.0824 19.0053 94.0824V84.0824C8.55983 84.0824 0 92.3241 0 102.805H10ZM10 107.379V102.805H0V107.379H10ZM19.0053 116.101C13.8893 116.101 10 112.145 10 107.379H0C0 117.86 8.55983 126.101 19.0053 126.101V116.101ZM30.5182 116.101H19.0053V126.101H30.5182V116.101ZM35.5182 157.694V121.101H25.5182V157.694H35.5182ZM40.1663 162.147C37.5401 162.147 35.5182 160.021 35.5182 157.694H25.5182C25.5182 165.735 32.2106 172.147 40.1663 172.147V162.147ZM49.8143 162.147H40.1663V172.147H49.8143V162.147ZM54.4624 157.389C54.4624 160.124 52.3364 162.147 49.8143 162.147V172.147C57.8741 172.147 64.4624 165.632 64.4624 157.389H54.4624ZM54.4624 121.101V157.389H64.4624V121.101H54.4624ZM61.6404 116.101H59.4624V126.101H61.6404V116.101ZM66.6404 185.444V121.101H56.6404V185.444H66.6404ZM75.6457 194.166C70.5298 194.166 66.6404 190.21 66.6404 185.444H56.6404C56.6404 195.925 65.2003 204.166 75.6457 204.166V194.166Z" fill="url(#paint0_linear_75_450)"/>
<path d="M103.656 121.101V116.101H98.6563V121.101H103.656ZM232.506 121.101H237.506V116.101H232.506V121.101ZM274.522 121.101V116.101H269.522V121.101H274.522ZM276.703 121.101H281.703V116.101H276.703V121.101ZM305.648 121.101V116.101H300.648V121.101H305.648ZM328.989 107.379H323.989V107.485L323.993 107.591L328.989 107.379ZM305.648 89.0824H300.648V94.0824H305.648V89.0824ZM276.703 89.0824V94.0824H281.703V89.0824H276.703ZM274.522 89.0824H269.522V94.0824H274.522V89.0824ZM232.506 89.0824V94.0824H237.506V89.0824H232.506ZM220.993 89.0824H215.993V94.0824H220.993V89.0824ZM220.993 88.7775H225.993V83.7775H220.993V88.7775ZM117.666 88.7775V83.7775H112.666V88.7775H117.666ZM117.666 89.0824V94.0824H122.666V89.0824H117.666ZM103.656 89.0824H98.6563V94.0824H103.656V89.0824ZM61.6404 89.0824V94.0824H66.6404V89.0824H61.6404ZM59.4624 89.0824H54.4624V94.0824H59.4624V89.0824ZM30.5182 89.0824V94.0824H35.5182V89.0824H30.5182ZM30.5182 121.101H35.5182V116.101H30.5182V121.101ZM59.4624 121.101V116.101H54.4624V121.101H59.4624ZM61.6404 121.101H66.6404V116.101H61.6404V121.101ZM89.651 194.166H75.6457V204.166H89.651V194.166ZM98.6563 185.444C98.6563 190.21 94.767 194.166 89.651 194.166V204.166C100.096 204.166 108.656 195.925 108.656 185.444H98.6563ZM98.6563 121.101V185.444H108.656V121.101H98.6563ZM232.506 116.101H103.656V126.101H232.506V116.101ZM237.506 185.444V121.101H227.506V185.444H237.506ZM246.511 194.166C241.395 194.166 237.506 190.21 237.506 185.444H227.506C227.506 195.925 236.066 204.166 246.511 204.166V194.166ZM260.516 194.166H246.511V204.166H260.516V194.166ZM269.522 185.444C269.522 190.21 265.632 194.166 260.516 194.166V204.166C270.962 204.166 279.522 195.925 279.522 185.444H269.522ZM269.522 121.101V185.444H279.522V121.101H269.522ZM276.703 116.101H274.522V126.101H276.703V116.101ZM281.703 161.963V121.101H271.703V161.963H281.703ZM286.351 166.417C283.725 166.417 281.703 164.29 281.703 161.963H271.703C271.703 170.004 278.396 176.417 286.351 176.417V166.417ZM295.999 166.417H286.351V176.417H295.999V166.417ZM300.648 161.963C300.648 164.29 298.626 166.417 295.999 166.417V176.417C303.955 176.417 310.648 170.004 310.648 161.963H300.648ZM300.648 121.101V161.963H310.648V121.101H300.648ZM315.295 116.101H305.648V126.101H315.295V116.101ZM323.993 107.591C324.177 111.914 320.387 116.101 315.295 116.101V126.101C325.764 126.101 334.423 117.481 333.984 107.166L323.993 107.591ZM323.989 102.805V107.379H333.989V102.805H323.989ZM314.984 94.0824C320.1 94.0824 323.989 98.0384 323.989 102.805H333.989C333.989 92.3241 325.429 84.0824 314.984 84.0824V94.0824ZM305.648 94.0824H314.984V84.0824H305.648V94.0824ZM300.648 47.6104V89.0824H310.648V47.6104H300.648ZM295.999 43.1573C298.626 43.1573 300.648 45.2836 300.648 47.6104H310.648C310.648 39.5693 303.955 33.1573 295.999 33.1573V43.1573ZM286.351 43.1573H295.999V33.1573H286.351V43.1573ZM281.703 47.6104C281.703 45.2836 283.725 43.1573 286.351 43.1573V33.1573C278.396 33.1573 271.703 39.5693 271.703 47.6104H281.703ZM281.703 89.0824V47.6104H271.703V89.0824H281.703ZM274.522 94.0824H276.703V84.0824H274.522V94.0824ZM269.522 19.5559V89.0824H279.522V19.5559H269.522ZM260.516 10.8335C265.632 10.8335 269.522 14.7894 269.522 19.5559H279.522C279.522 9.0752 270.962 0.833496 260.516 0.833496V10.8335ZM246.511 10.8335H260.516V0.833496H246.511V10.8335ZM237.506 19.5559C237.506 14.7894 241.395 10.8335 246.511 10.8335V0.833496C236.066 0.833496 227.506 9.07519 227.506 19.5559H237.506ZM237.506 89.0824V19.5559H227.506V89.0824H237.506ZM220.993 94.0824H232.506V84.0824H220.993V94.0824ZM225.993 89.0824V88.7775H215.993V89.0824H225.993ZM220.993 83.7775H117.666V93.7775H220.993V83.7775ZM112.666 88.7775V89.0824H122.666V88.7775H112.666ZM103.656 94.0824H117.666V84.0824H103.656V94.0824ZM98.6563 19.5559V89.0824H108.656V19.5559H98.6563ZM89.651 10.8335C94.767 10.8335 98.6563 14.7895 98.6563 19.5559H108.656C108.656 9.07519 100.096 0.833496 89.651 0.833496V10.8335ZM75.6457 10.8335H89.651V0.833496H75.6457V10.8335ZM66.6404 19.5559C66.6404 14.7895 70.5298 10.8335 75.6457 10.8335V0.833496C65.2003 0.833496 56.6404 9.07519 56.6404 19.5559H66.6404ZM66.6404 89.0824V19.5559H56.6404V89.0824H66.6404ZM59.4624 94.0824H61.6404V84.0824H59.4624V94.0824ZM54.4624 43.0363V89.0824H64.4624V43.0363H54.4624ZM49.8143 38.5832C52.4405 38.5832 54.4624 40.7095 54.4624 43.0363H64.4624C64.4624 34.9952 57.77 28.5832 49.8143 28.5832V38.5832ZM40.1663 38.5832H49.8143V28.5832H40.1663V38.5832ZM35.5182 43.0363C35.5182 40.7095 37.5401 38.5832 40.1663 38.5832V28.5832C32.2106 28.5832 25.5182 34.9952 25.5182 43.0363H35.5182ZM35.5182 89.0824V43.0363H25.5182V89.0824H35.5182ZM19.0053 94.0824H30.5182V84.0824H19.0053V94.0824ZM10 102.805C10 98.0384 13.8893 94.0824 19.0053 94.0824V84.0824C8.55983 84.0824 0 92.3241 0 102.805H10ZM10 107.379V102.805H0V107.379H10ZM19.0053 116.101C13.8893 116.101 10 112.145 10 107.379H0C0 117.86 8.55983 126.101 19.0053 126.101V116.101ZM30.5182 116.101H19.0053V126.101H30.5182V116.101ZM35.5182 157.694V121.101H25.5182V157.694H35.5182ZM40.1663 162.147C37.5401 162.147 35.5182 160.021 35.5182 157.694H25.5182C25.5182 165.735 32.2106 172.147 40.1663 172.147V162.147ZM49.8143 162.147H40.1663V172.147H49.8143V162.147ZM54.4624 157.389C54.4624 160.124 52.3364 162.147 49.8143 162.147V172.147C57.8741 172.147 64.4624 165.632 64.4624 157.389H54.4624ZM54.4624 121.101V157.389H64.4624V121.101H54.4624ZM61.6404 116.101H59.4624V126.101H61.6404V116.101ZM66.6404 185.444V121.101H56.6404V185.444H66.6404ZM75.6457 194.166C70.5298 194.166 66.6404 190.21 66.6404 185.444H56.6404C56.6404 195.925 65.2003 204.166 75.6457 204.166V194.166Z" fill="#5CBE4D"/>
<defs>
<linearGradient id="paint0_linear_75_450" x1="5" y1="5.8335" x2="311.222" y2="224.108" gradientUnits="userSpaceOnUse">
<stop stop-color="#FC5997"/>
<stop offset="1" stop-color="#9046B3"/>
</linearGradient>
</defs>
</svg>

<svg width="334" height="205" fill="none" xmlns="http://www.w3.org/2000/svg"><path d="M103.656 121.101v-5h-5v5h5zm128.85 0h5v-5h-5v5zm42.016 0v-5h-5v5h5zm2.181 0h5v-5h-5v5zm28.945 0v-5h-5v5h5zm23.341-13.722h-5v.106l.004.106 4.996-.212zm-23.341-18.297h-5v5h5v-5zm-28.945 0v5h5v-5h-5zm-2.181 0h-5v5h5v-5zm-42.016 0v5h5v-5h-5zm-11.513 0h-5v5h5v-5zm0-.304h5v-5h-5v5zm-103.327 0v-5h-5v5h5zm0 .304v5h5v-5h-5zm-14.01 0h-5v5h5v-5zm-42.016 0v5h5v-5h-5zm-2.178 0h-5v5h5v-5zm-28.944 0v5h5v-5h-5zm0 32.019h5v-5h-5v5zm28.944 0v-5h-5v5h5zm2.178 0h5v-5h-5v5zm28.011 73.065H75.646v10H89.65v-10zm9.005-8.722c0 4.766-3.889 8.722-9.005 8.722v10c10.445 0 19.005-8.241 19.005-18.722h-10zm0-64.343v64.343h10v-64.343h-10zm133.85-5h-128.85v10h128.85v-10zm5 69.343v-64.343h-10v64.343h10zm9.005 8.722c-5.116 0-9.005-3.956-9.005-8.722h-10c0 10.481 8.56 18.722 19.005 18.722v-10zm14.005 0h-14.005v10h14.005v-10zm9.006-8.722c0 4.766-3.89 8.722-9.006 8.722v10c10.446 0 19.006-8.241 19.006-18.722h-10zm0-64.343v64.343h10v-64.343h-10zm7.181-5h-2.181v10h2.181v-10zm5 45.862v-40.862h-10v40.862h10zm4.648 4.454c-2.626 0-4.648-2.127-4.648-4.454h-10c0 8.041 6.693 14.454 14.648 14.454v-10zm9.648 0h-9.648v10h9.648v-10zm4.649-4.454c0 2.327-2.022 4.454-4.649 4.454v10c7.956 0 14.649-6.413 14.649-14.454h-10zm0-40.862v40.862h10v-40.862h-10zm14.647-5h-9.647v10h9.647v-10zm8.698-8.51c.184 4.323-3.606 8.51-8.698 8.51v10c10.469 0 19.128-8.62 18.689-18.935l-9.991.425zm-.004-4.786v4.574h10v-4.574h-10zm-9.005-8.723c5.116 0 9.005 3.956 9.005 8.723h10c0-10.48-8.56-18.723-19.005-18.723v10zm-9.336 0h9.336v-10h-9.336v10zm-5-46.472v41.472h10V47.61h-10zm-4.649-4.453c2.627 0 4.649 2.127 4.649 4.453h10c0-8.04-6.693-14.453-14.649-14.453v10zm-9.648 0h9.648v-10h-9.648v10zm-4.648 4.453c0-2.326 2.022-4.453 4.648-4.453v-10c-7.955 0-14.648 6.412-14.648 14.453h10zm0 41.472V47.61h-10v41.472h10zm-7.181 5h2.181v-10h-2.181v10zm-5-74.526v69.526h10V19.556h-10zm-9.006-8.723c5.116 0 9.006 3.956 9.006 8.723h10c0-10.48-8.56-18.723-19.006-18.723v10zm-14.005 0h14.005v-10h-14.005v10zm-9.005 8.723c0-4.767 3.889-8.723 9.005-8.723v-10c-10.445 0-19.005 8.242-19.005 18.723h10zm0 69.526V19.556h-10v69.526h10zm-16.513 5h11.513v-10h-11.513v10zm5-5v-.304h-10v.304h10zm-5-5.304H117.666v10h103.327v-10zm-108.327 5v.304h10v-.304h-10zm-9.01 5.304h14.01v-10h-14.01v10zm-5-74.526v69.526h10V19.556h-10zm-9.005-8.723c5.116 0 9.005 3.957 9.005 8.723h10c0-10.48-8.56-18.723-19.005-18.723v10zm-14.005 0H89.65v-10H75.646v10zm-9.006 8.723c0-4.767 3.89-8.723 9.006-8.723v-10C65.2.833 56.64 9.075 56.64 19.556h10zm0 69.526V19.556h-10v69.526h10zm-7.178 5h2.178v-10h-2.178v10zm-5-51.046v46.046h10V43.036h-10zm-4.648-4.453c2.627 0 4.648 2.127 4.648 4.453h10c0-8.04-6.692-14.453-14.648-14.453v10zm-9.648 0h9.648v-10h-9.648v10zm-4.648 4.453c0-2.327 2.022-4.453 4.648-4.453v-10c-7.955 0-14.648 6.412-14.648 14.453h10zm0 46.046V43.036h-10v46.046h10zm-16.513 5h11.513v-10H19.005v10zM10 102.805c0-4.767 3.89-8.723 9.005-8.723v-10C8.56 84.082 0 92.324 0 102.805h10zm0 4.574v-4.574H0v4.574h10zm9.005 8.722c-5.116 0-9.005-3.956-9.005-8.722H0c0 10.481 8.56 18.722 19.005 18.722v-10zm11.513 0H19.005v10h11.513v-10zm5 41.593v-36.593h-10v36.593h10zm4.648 4.453c-2.626 0-4.648-2.126-4.648-4.453h-10c0 8.041 6.693 14.453 14.648 14.453v-10zm9.648 0h-9.648v10h9.648v-10zm4.648-4.758c0 2.735-2.126 4.758-4.648 4.758v10c8.06 0 14.648-6.515 14.648-14.758h-10zm0-36.288v36.288h10v-36.288h-10zm7.178-5h-2.178v10h2.178v-10zm5 69.343v-64.343h-10v64.343h10zm9.006 8.722c-5.116 0-9.006-3.956-9.006-8.722h-10c0 10.481 8.56 18.722 19.006 18.722v-10z" fill="#E1F6E2"/></svg>
